src/assets/icons/btn-edit.svg

<?xml version="1.0" encoding="UTF-8" standalone="no"?>
<svg width="29px" height="29px" viewBox="0 0 29 29" version="1.1" xmlns="http://www.w3.org/2000/svg" xmlns:xlink="http://www.w3.org/1999/xlink">
    <!-- Generator: Sketch 48.2 (47327) - http://www.bohemiancoding.com/sketch -->
    <title>ic_edit</title>
    <desc>Created with Sketch.</desc>
    <defs></defs>
    <g id="Artboard" stroke="none" stroke-width="1" fill="none" fill-rule="evenodd" transform="translate(-82.000000, -12.000000)">
        <path d="M103.834165,21.2700506 L102.523909,22.5796586 L99.5457009,19.6027466 L100.855957,18.2918426 C100.973245,18.1752026 101.109973,18.1505786 101.203933,18.1505786 C101.287525,18.1505786 101.448229,18.1713146 101.588845,18.3125786 L103.814077,20.5371626 C104.021437,20.7445226 104.030509,21.0730586 103.834165,21.2700506 Z M88.7169729,33.8976266 C88.6223649,33.9436346 88.5115569,33.9241946 88.4370369,33.8529146 C88.3631649,33.7822826 88.3411329,33.6708266 88.3819569,33.5755706 L90.0972129,29.6149946 L92.5460049,32.0637866 L88.7169729,33.8976266 Z M98.6294289,20.5190186 L101.606989,23.4965786 L93.7331409,31.3671866 C93.7214769,31.3671866 93.6787089,31.3639466 93.6339969,31.3192346 L90.8067729,28.4926586 C90.7588209,28.4440586 90.7568769,28.3967546 90.7523409,28.3967546 L90.7516929,28.3967546 L98.6294289,20.5190186 Z M104.730349,19.6208906 L102.505117,17.3956586 C102.144829,17.0353706 101.673085,16.8545786 101.203933,16.8545786 C100.744501,16.8545786 100.287013,17.0275946 99.9396849,17.3755706 L89.8347729,27.4804826 C89.7485889,27.5673146 89.6824929,27.6658106 89.6261169,27.7688426 C89.5133649,27.8362346 89.4148689,27.9276026 89.3584929,28.0572026 L87.1928769,33.0604106 C86.9382129,33.6487946 87.0768849,34.3421546 87.5389089,34.7866826 C87.8318049,35.0685626 88.2193089,35.2169546 88.6126449,35.2169546 C88.8381489,35.2169546 89.0655969,35.1677066 89.2761969,35.0666186 L94.2981969,32.6605946 C94.4511249,32.5880186 94.5573969,32.4616586 94.6150689,32.3158586 C94.6254369,32.3067866 94.6364529,32.3003066 94.6455249,32.2912346 L104.750437,22.1863226 C105.453517,21.4832426 105.444445,20.3349866 104.730349,19.6208906 Z" id="Fill-1" fill="#607D8B"></path>
    </g>
</svg>

<svg width="29" height="29" viewBox="0 0 29 29" xmlns="http://www.w3.org/2000/svg"><g id="Artboard" fill="none" fill-rule="evenodd" transform="translate(-82 -12)"><path d="M103.834 21.27l-1.31 1.31-2.978-2.977 1.31-1.311a.485.485 0 0 1 .348-.141.54.54 0 0 1 .385.162l2.225 2.224a.52.52 0 0 1 .02.733zM88.717 33.898a.247.247 0 0 1-.335-.322l1.715-3.961 2.449 2.449-3.829 1.834zm9.912-13.379l2.978 2.978-7.874 7.87a.145.145 0 0 1-.099-.048l-2.827-2.826c-.048-.049-.05-.096-.055-.096l7.877-7.878zm6.101-.898l-2.225-2.225a1.837 1.837 0 0 0-1.301-.541c-.46 0-.917.173-1.264.52L89.835 27.48a1.261 1.261 0 0 0-.209.289.632.632 0 0 0-.268.288l-2.165 5.003a1.55 1.55 0 0 0 .346 1.727 1.548 1.548 0 0 0 1.737.28l5.022-2.406a.633.633 0 0 0 .317-.345c.01-.01.021-.016.03-.025l10.105-10.105c.704-.703.694-1.851-.02-2.565z" id="Fill-1" fill="#607D8B"/></g></svg>
